; generated by PrusaSlicer 2.2.0+ on 2020-03-27 at 01:27:48 UTC

; 

; external perimeters extrusion width = 0.45mm
; perimeters extrusion width = 0.45mm
; infill extrusion width = 0.45mm
; solid infill extrusion width = 0.45mm
; top infill extrusion width = 0.40mm
; first layer extrusion width = 0.42mm

M73 P0 R29
M73 Q0 S30
M201 X1000 Y1000 Z1000 E5000 ; sets maximum accelerations, mm/sec^2
M203 X200 Y200 Z12 E120 ; sets maximum feedrates, mm/sec
M204 P1250 R1250 T1250 ; sets acceleration (P, T) and retract acceleration (R), mm/sec^2
M205 X8.00 Y8.00 Z0.40 E4.50 ; sets the jerk limits, mm/sec
M205 S0 T0 ; sets the minimum extruding and travel feed rate, mm/sec
M107
M862.3 P "MK3S" ; printer model check
M862.1 P0.4 ; nozzle diameter check
M115 U3.8.1 ; tell printer latest fw version
G90 ; use absolute coordinates
M83 ; extruder relative mode
M104 S215 ; set extruder temp
M140 S60 ; set bed temp
M190 S60 ; wait for bed temp
M109 S215 ; wait for extruder temp
G28 W ; home all without mesh bed level
G80 ; mesh bed leveling
G1 Y-3.0 F1000.0 ; go outside print area
G92 E0.0
G1 X60.0 E9.0 F1000.0 ; intro line
M73 Q0 S30
M73 P0 R29
G1 X100.0 E12.5 F1000.0 ; intro line
G92 E0.0
M221 S95
G21 ; set units to millimeters
G90 ; use absolute coordinates
M83 ; use relative distances for extrusion
M900 K30 ; Filament gcode
;BEFORE_LAYER_CHANGE
G92 E0.0
;0.2


G1 E-0.80000 F2100.00000
G1 Z0.600 F10800.000
;AFTER_LAYER_CHANGE
;0.2
G1 X56.846 Y106.416
G1 Z0.200
G1 E0.80000 F2100.00000
M204 S1000
G1 F1200.000
G1 X57.243 Y105.069 E0.04404
G1 X57.850 Y103.908 E0.04106
G1 X58.446 Y103.124 E0.03088
G1 X59.033 Y102.563 E0.02547
G1 X60.769 Y101.220 E0.06882
G1 X61.242 Y100.953 E0.01704
G1 X91.028 Y88.884 E1.00765
G1 X96.285 Y86.857 E0.17666
G1 X101.278 Y85.298 E0.16401
G1 X106.927 Y83.932 E0.18224
G1 X112.634 Y82.956 E0.18154
G1 X118.408 Y82.367 E0.18196
G1 X124.222 Y82.168 E0.18241
G1 X130.029 Y82.360 E0.18217
G1 X136.262 Y83.005 E0.19648
G1 X141.972 Y84.005 E0.18177
G1 X147.608 Y85.393 E0.18198
G1 X152.602 Y86.976 E0.16428
G1 X157.856 Y89.026 E0.17681
G1 X188.217 Y101.510 E1.02930
G1 X188.925 Y101.972 E0.02649
G1 X190.605 Y103.766 E0.07706
G1 X191.118 Y104.540 E0.02913
G1 X191.590 Y105.691 E0.03901
G1 X191.809 Y106.602 E0.02938
G1 X191.903 Y107.968 E0.04292
G1 X191.746 Y109.259 E0.04078
G1 X191.334 Y110.544 E0.04230
G1 X190.969 Y111.271 E0.02551
G1 X190.248 Y112.307 E0.03959
G1 X189.689 Y112.900 E0.02553
G1 X188.713 Y113.677 E0.03912
G1 X187.617 Y114.269 E0.03908
G1 X186.849 Y114.553 E0.02566
G1 X186.071 Y114.738 E0.02508
G1 X184.831 Y114.853 E0.03904
G1 X63.710 Y114.793 E3.79768
G1 X62.522 Y114.673 E0.03742
G1 X61.747 Y114.483 E0.02502
G1 X60.603 Y114.016 E0.03874
G1 X59.899 Y113.605 E0.02556
G1 X58.929 Y112.826 E0.03901
G1 X58.377 Y112.239 E0.02525
G1 X57.664 Y111.209 E0.03929
G1 X57.301 Y110.485 E0.02539
G1 X56.882 Y109.174 E0.04317
G1 X56.727 Y107.793 E0.04355
G1 X56.841 Y106.476 E0.04146
G1 F8640.000
G1 X57.243 Y105.069 E-0.33792
G1 X57.850 Y103.908 E-0.30239
G1 X58.163 Y103.496 E-0.11969
G1 E-0.04000 F2100.00000
G1 Z0.800 F10800.000
G1 X66.379 Y110.234
G1 Z0.200
G1 E0.80000 F2100.00000
G1 F1200.000
G1 X66.372 Y109.906 E0.01028
G1 X69.494 Y106.744 E0.13933
G1 X69.811 Y106.444 E0.01368
G1 X73.448 Y103.238 E0.15202
G1 X73.785 Y102.962 E0.01367
G1 X77.677 Y99.997 E0.15340
G1 X78.033 Y99.745 E0.01368
G1 X82.162 Y97.039 E0.15478
G1 X82.536 Y96.813 E0.01368
G1 X86.881 Y94.383 E0.15611
G1 X87.270 Y94.184 E0.01369
G1 X91.810 Y92.045 E0.15736
G1 X92.212 Y91.873 E0.01370
G1 X96.923 Y90.040 E0.15851
G1 X97.336 Y89.896 E0.01371
G1 X102.193 Y88.381 E0.15951
G1 X102.614 Y88.265 E0.01371
G1 X107.589 Y87.078 E0.16034
G1 X108.017 Y86.991 E0.01372
G1 X113.081 Y86.140 E0.16099
G1 X113.515 Y86.083 E0.01372
G1 X118.638 Y85.574 E0.16143
G1 X119.075 Y85.546 E0.01372
G1 X124.362 Y85.383 E0.16586
G1 X129.819 Y85.568 E0.17118
G1 X130.254 Y85.598 E0.01370
G1 X135.509 Y86.147 E0.16564
G1 X140.870 Y87.060 E0.17052
G1 X141.297 Y87.149 E0.01369
G1 X146.396 Y88.393 E0.16455
G1 X151.539 Y90.010 E0.16904
G1 X151.950 Y90.156 E0.01368
G1 X156.777 Y92.062 E0.16271
G1 X161.587 Y94.340 E0.16688
G1 X161.974 Y94.541 E0.01367
G1 X166.310 Y96.989 E0.15611
G1 X166.682 Y97.217 E0.01368
G1 X170.908 Y100.017 E0.15897
G1 X175.034 Y103.174 E0.16290
G1 X175.370 Y103.452 E0.01365
G1 X178.994 Y106.673 E0.15202
G1 X179.309 Y106.974 E0.01368
G1 X182.346 Y110.076 E0.13612
G1 X182.381 Y110.084 E0.00112
G1 X182.556 Y110.283 E0.00831
G1 X183.082 Y110.681 E0.02069
G1 X183.673 Y110.967 E0.02060
G1 X184.309 Y111.133 E0.02058
G1 X184.964 Y111.172 E0.02058
G1 X185.614 Y111.083 E0.02059
G1 X186.236 Y110.870 E0.02061
G1 X186.805 Y110.540 E0.02063
G1 X187.303 Y110.103 E0.02077
G1 X187.744 Y109.516 E0.02301
G1 X188.026 Y108.914 E0.02085
G1 X188.185 Y108.272 E0.02076
G1 X188.215 Y107.609 E0.02078
G1 X188.113 Y106.952 E0.02086
G1 X187.872 Y106.300 E0.02179
G1 X187.503 Y105.786 E0.01985
G1 X186.613 Y104.862 E0.04023
G1 X187.017 Y104.626 E0.01468
G1 X188.089 Y105.773 E0.04924
G1 X188.271 Y106.040 E0.01014
G1 X188.418 Y106.356 E0.01092
G1 X188.541 Y106.712 E0.01182
G1 X188.628 Y107.077 E0.01176
G1 X188.678 Y107.451 E0.01183
G1 X188.691 Y107.825 E0.01173
G1 X188.666 Y108.202 E0.01185
G1 X188.604 Y108.571 E0.01174
G1 X188.506 Y108.937 E0.01188
G1 X188.373 Y109.288 E0.01177
G1 X188.205 Y109.629 E0.01191
G1 X188.007 Y109.948 E0.01178
G1 X187.776 Y110.250 E0.01193
G1 X187.521 Y110.525 E0.01175
G1 X187.236 Y110.778 E0.01194
G1 X186.936 Y110.997 E0.01167
G1 X186.608 Y111.191 E0.01194
G1 X186.275 Y111.348 E0.01155
G1 X185.916 Y111.475 E0.01192
G1 X185.563 Y111.563 E0.01140
G1 X185.188 Y111.619 E0.01190
G1 X184.829 Y111.637 E0.01128
G1 X184.450 Y111.619 E0.01189
G1 X184.096 Y111.567 E0.01121
G1 X183.728 Y111.475 E0.01188
G1 X183.392 Y111.355 E0.01121
G1 X183.049 Y111.193 E0.01189
G1 X182.740 Y111.009 E0.01128
G1 X182.435 Y110.783 E0.01190
G1 X182.087 Y110.470 E0.01468
G1 X182.032 Y110.468 E0.00171
G1 X179.001 Y107.350 E0.13635
G1 X178.639 Y107.004 E0.01568
G1 X175.071 Y103.840 E0.14954
G1 X174.686 Y103.522 E0.01565
G1 X170.869 Y100.595 E0.15080
G1 X170.463 Y100.306 E0.01565
G1 X166.416 Y97.633 E0.15206
G1 X165.990 Y97.373 E0.01564
G1 X161.732 Y94.972 E0.15328
G1 X161.289 Y94.743 E0.01563
G1 X156.841 Y92.628 E0.15443
G1 X156.384 Y92.429 E0.01562
G1 X151.770 Y90.614 E0.15547
G1 X151.301 Y90.447 E0.01562
G1 X146.545 Y88.943 E0.15639
G1 X146.065 Y88.809 E0.01561
G1 X141.194 Y87.626 E0.15716
G1 X140.707 Y87.525 E0.01561
G1 X135.749 Y86.671 E0.15775
G1 X135.256 Y86.603 E0.01560
G1 X130.238 Y86.084 E0.15816
G1 X129.742 Y86.050 E0.01560
G1 X124.695 Y85.870 E0.15836
G1 X124.197 Y85.868 E0.01560
G1 X119.149 Y86.028 E0.15836
G1 X118.652 Y86.060 E0.01560
G1 X113.633 Y86.558 E0.15816
G1 X113.140 Y86.624 E0.01560
G1 X108.178 Y87.457 E0.15775
G1 X107.690 Y87.556 E0.01561
G1 X102.814 Y88.718 E0.15716
G1 X102.334 Y88.850 E0.01561
G1 X97.572 Y90.334 E0.15639
G1 X97.102 Y90.499 E0.01562
G1 X92.480 Y92.295 E0.15547
G1 X92.022 Y92.491 E0.01562
G1 X87.565 Y94.588 E0.15443
G1 X87.122 Y94.816 E0.01563
G1 X82.854 Y97.199 E0.15328
G1 X82.427 Y97.457 E0.01564
G1 X78.369 Y100.112 E0.15206
G1 X77.961 Y100.400 E0.01565
G1 X74.132 Y103.311 E0.15080
G1 X73.746 Y103.627 E0.01565
G1 X70.164 Y106.777 E0.14955
G1 X69.800 Y107.120 E0.01568
G1 X66.757 Y110.226 E0.13635
G1 X66.439 Y110.233 E0.00997
G1 X66.208 Y110.464 F10800.000
G1 F1200.000
G1 X66.204 Y110.705 E0.00755
G1 X65.873 Y110.961 E0.01312
G1 X65.570 Y111.140 E0.01105
G1 X65.227 Y111.301 E0.01189
G1 X64.890 Y111.420 E0.01119
G1 X64.522 Y111.510 E0.01188
G1 X64.169 Y111.561 E0.01119
G1 X63.790 Y111.578 E0.01189
G1 X63.431 Y111.559 E0.01126
G1 X63.056 Y111.502 E0.01190
G1 X62.704 Y111.412 E0.01139
G1 X62.346 Y111.284 E0.01193
G1 X62.014 Y111.126 E0.01153
G1 X61.687 Y110.931 E0.01194
G1 X61.387 Y110.711 E0.01166
G1 X61.103 Y110.457 E0.01195
G1 X60.849 Y110.181 E0.01174
G1 X60.619 Y109.878 E0.01194
G1 X60.422 Y109.558 E0.01178
G1 X60.255 Y109.217 E0.01191
G1 X60.124 Y108.865 E0.01177
G1 X60.027 Y108.499 E0.01188
G1 X59.966 Y108.129 E0.01174
G1 X59.943 Y107.752 E0.01185
G1 X59.956 Y107.378 E0.01172
G1 X60.008 Y107.005 E0.01183
G1 X60.096 Y106.640 E0.01175
G1 X60.220 Y106.284 E0.01182
G1 X60.380 Y105.943 E0.01183
G1 X60.573 Y105.618 E0.01183
G1 X60.789 Y105.327 E0.01136
G1 X61.030 Y105.082 E0.01078
G1 X62.268 Y104.120 E0.04915
G1 X62.625 Y104.441 E0.01506
G1 X61.566 Y105.242 E0.04162
G1 X61.364 Y105.421 E0.00848
G1 X61.056 Y105.754 E0.01422
G1 X60.751 Y106.264 E0.01861
G1 X60.521 Y106.883 E0.02072
G1 X60.418 Y107.539 E0.02081
G1 X60.446 Y108.201 E0.02078
G1 X60.602 Y108.844 E0.02075
G1 X60.881 Y109.444 E0.02073
G1 X61.269 Y109.978 E0.02071
G1 X61.754 Y110.427 E0.02069
G1 X62.315 Y110.773 E0.02067
G1 X62.931 Y111.003 E0.02064
G1 X63.581 Y111.109 E0.02065
G1 X64.260 Y111.084 E0.02131
G1 X64.878 Y110.932 E0.01995
G1 X65.480 Y110.664 E0.02065
G1 X65.741 Y110.467 E0.01026
G1 X66.148 Y110.465 E0.01277
G1 X65.999 Y110.089 F10800.000
G1 F1200.000
G1 X65.992 Y109.754 E0.01048
G1 X69.230 Y106.474 E0.14452
G1 X69.557 Y106.165 E0.01409
G1 X73.204 Y102.951 E0.15244
G1 X73.552 Y102.666 E0.01409
G1 X77.454 Y99.693 E0.15382
G1 X77.821 Y99.433 E0.01409
G1 X81.961 Y96.720 E0.15519
G1 X82.346 Y96.487 E0.01410
G1 X86.703 Y94.051 E0.15652
G1 X87.103 Y93.845 E0.01410
G1 X91.656 Y91.701 E0.15778
G1 X92.069 Y91.524 E0.01411
G1 X96.793 Y89.687 E0.15891
G1 X97.218 Y89.538 E0.01411
G1 X102.086 Y88.019 E0.15991
G1 X102.521 Y87.900 E0.01412
G1 X107.507 Y86.710 E0.16075
G1 X107.949 Y86.620 E0.01412
G1 X113.025 Y85.767 E0.16139
G1 X113.471 Y85.708 E0.01412
G1 X118.607 Y85.198 E0.16183
G1 X119.057 Y85.169 E0.01412
G1 X124.363 Y85.006 E0.16645
G1 X129.838 Y85.192 E0.17177
G1 X130.287 Y85.223 E0.01411
G1 X135.560 Y85.773 E0.16623
G1 X140.940 Y86.690 E0.17111
G1 X141.380 Y86.781 E0.01411
G1 X146.497 Y88.030 E0.16514
G1 X151.659 Y89.652 E0.16963
G1 X152.083 Y89.803 E0.01410
G1 X156.927 Y91.716 E0.16331
G1 X161.755 Y94.002 E0.16749
G1 X162.154 Y94.209 E0.01410
G1 X166.501 Y96.664 E0.15652
G1 X166.884 Y96.898 E0.01410
G1 X171.127 Y99.710 E0.15958
G1 X175.269 Y102.879 E0.16353
G1 X175.615 Y103.165 E0.01408
G1 X179.249 Y106.395 E0.15244
G1 X179.574 Y106.706 E0.01409
G1 X182.535 Y109.730 E0.13271
G1 X182.581 Y109.740 E0.00147
G1 X182.814 Y110.005 E0.01107
G1 X183.280 Y110.358 E0.01833
G1 X183.805 Y110.612 E0.01828
G1 X184.368 Y110.759 E0.01826
G1 X184.949 Y110.794 E0.01826
G1 X185.527 Y110.715 E0.01827
G1 X186.079 Y110.525 E0.01830
G1 X186.584 Y110.232 E0.01833
G1 X187.025 Y109.845 E0.01840
G1 X187.419 Y109.321 E0.02056
G1 X187.669 Y108.788 E0.01846
G1 X187.810 Y108.217 E0.01843
G1 X187.836 Y107.630 E0.01844
G1 X187.746 Y107.047 E0.01848
G1 X187.536 Y106.479 E0.01900
G1 X187.212 Y106.028 E0.01741
G1 X186.008 Y104.778 E0.05441
G1 X187.087 Y104.148 E0.03916
G1 X188.385 Y105.537 E0.05959
G1 X188.601 Y105.853 E0.01202
G1 X188.768 Y106.215 E0.01248
G1 X188.904 Y106.606 E0.01300
G1 X188.999 Y107.008 E0.01294
G1 X189.054 Y107.419 E0.01301
G1 X189.068 Y107.831 E0.01290
G1 X189.041 Y108.245 E0.01303
G1 X188.973 Y108.651 E0.01291
G1 X188.865 Y109.053 E0.01304
G1 X188.719 Y109.438 E0.01292
G1 X188.535 Y109.812 E0.01306
G1 X188.318 Y110.162 E0.01292
G1 X188.065 Y110.493 E0.01307
G1 X187.785 Y110.795 E0.01289
G1 X187.473 Y111.072 E0.01308
G1 X187.143 Y111.313 E0.01280
G1 X186.784 Y111.525 E0.01308
G1 X186.418 Y111.697 E0.01269
G1 X186.025 Y111.836 E0.01307
G1 X185.637 Y111.933 E0.01255
G1 X185.225 Y111.995 E0.01306
G1 X184.829 Y112.014 E0.01244
G1 X184.413 Y111.994 E0.01305
G1 X184.023 Y111.937 E0.01237
G1 X183.619 Y111.836 E0.01304
G1 X183.248 Y111.704 E0.01237
G1 X182.871 Y111.526 E0.01305
G1 X182.531 Y111.323 E0.01244
G1 X182.196 Y111.075 E0.01306
G1 X181.938 Y110.843 E0.01088
G1 X181.869 Y110.841 E0.00216
G1 X178.736 Y107.618 E0.14095
G1 X178.384 Y107.282 E0.01524
G1 X174.826 Y104.127 E0.14912
G1 X174.451 Y103.817 E0.01523
G1 X170.645 Y100.898 E0.15038
G1 X170.249 Y100.617 E0.01523
G1 X166.213 Y97.952 E0.15164
G1 X165.799 Y97.698 E0.01523
G1 X161.552 Y95.304 E0.15286
G1 X161.122 Y95.080 E0.01522
G1 X156.685 Y92.971 E0.15402
G1 X156.240 Y92.778 E0.01522
G1 X151.638 Y90.967 E0.15507
G1 X151.181 Y90.805 E0.01521
G1 X146.437 Y89.304 E0.15599
G1 X145.970 Y89.174 E0.01521
G1 X141.112 Y87.994 E0.15676
G1 X140.637 Y87.895 E0.01521
G1 X135.691 Y87.044 E0.15735
G1 X135.211 Y86.978 E0.01520
G1 X130.206 Y86.460 E0.15776
G1 X129.722 Y86.427 E0.01520
G1 X124.687 Y86.247 E0.15796
G1 X124.203 Y86.246 E0.01520
G1 X119.167 Y86.404 E0.15796
G1 X118.683 Y86.436 E0.01520
G1 X113.676 Y86.933 E0.15776
G1 X113.196 Y86.997 E0.01520
G1 X108.246 Y87.828 E0.15735
G1 X107.771 Y87.924 E0.01521
G1 X102.908 Y89.084 E0.15676
G1 X102.440 Y89.212 E0.01521
G1 X97.690 Y90.692 E0.15599
G1 X97.232 Y90.853 E0.01521
G1 X92.623 Y92.644 E0.15507
G1 X92.177 Y92.835 E0.01522
G1 X87.732 Y94.926 E0.15402
G1 X87.300 Y95.148 E0.01522
G1 X83.043 Y97.525 E0.15286
G1 X82.628 Y97.776 E0.01523
G1 X78.581 Y100.424 E0.15164
G1 X78.184 Y100.704 E0.01523
G1 X74.366 Y103.607 E0.15038
G1 X73.990 Y103.915 E0.01523
G1 X70.418 Y107.056 E0.14912
G1 X70.065 Y107.389 E0.01524
G1 X66.918 Y110.600 E0.14095
G1 X66.583 Y110.607 E0.01051
G1 X66.578 Y110.893 E0.00898
G1 X66.085 Y111.273 E0.01953
G1 X65.746 Y111.474 E0.01234
G1 X65.370 Y111.650 E0.01305
G1 X64.998 Y111.782 E0.01235
G1 X64.594 Y111.881 E0.01304
G1 X64.204 Y111.937 E0.01235
G1 X63.788 Y111.955 E0.01305
G1 X63.393 Y111.934 E0.01242
G1 X62.981 Y111.872 E0.01306
G1 X62.594 Y111.773 E0.01254
G1 X62.201 Y111.632 E0.01307
G1 X61.836 Y111.459 E0.01267
G1 X61.478 Y111.246 E0.01308
G1 X61.149 Y111.004 E0.01280
G1 X60.838 Y110.725 E0.01308
G1 X60.560 Y110.423 E0.01288
G1 X60.308 Y110.091 E0.01308
G1 X60.092 Y109.740 E0.01292
G1 X59.909 Y109.366 E0.01306
G1 X59.764 Y108.980 E0.01292
G1 X59.657 Y108.578 E0.01304
G1 X59.591 Y108.172 E0.01291
G1 X59.565 Y107.757 E0.01303
G1 X59.580 Y107.346 E0.01290
G1 X59.637 Y106.934 E0.01301
G1 X59.734 Y106.533 E0.01294
G1 X59.871 Y106.142 E0.01301
G1 X60.046 Y105.766 E0.01302
G1 X60.259 Y105.409 E0.01301
G1 X60.502 Y105.082 E0.01278
G1 X60.779 Y104.800 E0.01239
G1 X62.285 Y103.629 E0.05983
G1 X63.217 Y104.466 E0.03929
G1 X61.805 Y105.533 E0.05548
G1 X61.628 Y105.691 E0.00743
G1 X61.359 Y105.982 E0.01242
G1 X61.092 Y106.427 E0.01629
G1 X60.888 Y106.979 E0.01844
G1 X60.797 Y107.561 E0.01846
G1 X60.821 Y108.148 E0.01844
G1 X60.960 Y108.719 E0.01842
G1 X61.207 Y109.252 E0.01841
G1 X61.553 Y109.727 E0.01840
G1 X61.983 Y110.125 E0.01838
G1 X62.481 Y110.432 E0.01836
G1 X63.029 Y110.637 E0.01833
G1 X63.605 Y110.731 E0.01830
G1 X64.208 Y110.709 E0.01892
G1 X64.755 Y110.574 E0.01768
G1 X65.287 Y110.337 E0.01825
G1 X65.614 Y110.091 E0.01284
G1 X65.939 Y110.089 E0.01018
G1 X66.330 Y110.047 F10800.000
G1 X65.884 Y110.655
G1 F1200.000
G1 X65.599 Y110.859 E0.00200
G1 X65.459 Y110.931 E0.00090
G1 X65.136 Y111.079 E0.00203
G1 X64.822 Y111.191 E0.00190
G1 X64.288 Y111.312 E0.00312
G1 X63.791 Y111.340 E0.00284
G1 X63.455 Y111.326 E0.00192
G1 X62.870 Y111.221 E0.00340
G1 X62.213 Y110.973 E0.00401
G1 X61.616 Y110.603 E0.00401
G1 X61.100 Y110.124 E0.00402
G1 X60.685 Y109.555 E0.00454
G1 X60.386 Y108.916 E0.00455
G1 X60.216 Y108.229 E0.00456
G1 X60.185 Y107.521 E0.00457
G1 X60.294 Y106.819 E0.00458
G1 X60.540 Y106.158 E0.00455
G1 X60.871 Y105.610 E0.00413
G1 X61.189 Y105.261 E0.00304
G1 X61.423 Y105.065 E0.00197
G1 X62.294 Y104.397 E0.00839
G1 F8640.000
G1 X61.423 Y105.065 E-0.25341
G1 E-0.54659 F2100.00000
G1 Z0.800 F10800.000
G1 X66.563 Y110.017
G1 Z0.200
G1 E0.80000 F2100.00000
G1 F1200.000
G1 X66.650 Y109.979 E0.00047
G1 X69.631 Y106.949 E0.02124
G1 X69.975 Y106.623 E0.00237
G1 X73.587 Y103.442 E0.02406
G1 X73.982 Y103.119 E0.00255
G1 X77.814 Y100.202 E0.02407
G1 X78.172 Y99.949 E0.00219
G1 X82.294 Y97.249 E0.02463
G1 X82.731 Y96.986 E0.00255
G1 X86.998 Y94.601 E0.02443
G1 X87.379 Y94.406 E0.00214
G1 X91.912 Y92.271 E0.02504
G1 X92.388 Y92.068 E0.00259
G1 X97.009 Y90.271 E0.02478
G1 X97.496 Y90.102 E0.00258
G1 X102.262 Y88.616 E0.02495
G1 X102.675 Y88.502 E0.00214
G1 X107.636 Y87.318 E0.02549
G1 X108.134 Y87.218 E0.00254
